X: 39620
T: Tempest, The
R: reel
M: 4/4
K: Cmajor
(3ABc|:d2 cA GE ~E2|DEcE dEcE|AdcA ~G2 cG|EDCD ED (3ABc|
d2 cA GE ~E2|DEcE dEcE|DEFA GEcE|EDCD ED ~D2:|
|:d2 ed cAGc|AdcA GE ~E2|d2 ed cdef|edcA d2 ag|
efdf ec ~c2|cAG cAE~E2|DEFA GEcE|EDCD ED (3ABc:|

